!!!!SEGMENT: pl-wtm--r-2160_wysocki-kasper-napoleon--valse-etiudentino.krn
!!!cenid: 18xx:2078
!!!COM: Wysocki, Kasper Napoleon
!!!COM-rismid: pe41024789
!!!CDT: 1810-1850
!!!CNT: Polish
!!!OTL: Valse etiudentino
!!!PDT:
!!!AGN: Secular; Waltz
!!!SMS-siglum: PL-Wtm
!!!SMS-shelfmark: R 2160
!!!SMS-shelfwork: W
!!!SMS-variant:
!!!SMS-altvar:
!!!NIFC-rismid: 1001141454
!!!URL-scan: http://repozytorium.nifc.pl/skany/pl-wtm-nut--r2160
!!!ONB-nifc:
!!!key:
**kern	**kern
*part1	*part1
*staff2	*staff1
*Iempty	*Iforte
*	*I"fp.
*>[A,B,B1,B,B2,C]	*>[A,B,B1,B,B2,C]
*>A	*>A
*clefF4	*clefG2
*k[f#]	*k[f#]
*G:	*G:
*M3/4	*M3/4
*all\right	*all\right
4r	8g/L
.	8a/J
=1	=1
*^	*
4rF	2GG/	4b\
*2\right	*	*
2B 2D\	.	4r
.	4GG/	4b\
*v	*v	*
=2	=2
4DD/	2a/
4c 4A 4F#\	.
4D\	4d/
=3	=3
*^	*
4rF	2.GG/	4dd\
4B 4D/	.	4r
4B 4D/	.	[4gg [>4g\
*Xrep	*Xrep	*
=5	=5	=5
*rep	*rep	*
4rF	2.GG/	4gg] 4g\]
4B 4D/	.	4dd\
4B 4D/	.	4b\
*Xrep	*Xrep	*
=6	=6	=6
4rF	2GG/	4g/
.	.	16qqg/LL
.	.	16qqa/JJ
2B 2D\	.	4g/
.	4GG/	8f#/L
.	.	8g/J
*v	*v	*
=7	=7
4DD/	4a/
4c 4A 4F#\	4.ee 4.e\
4D\	.
.	8ee-X 8e-X/
=8	=8
*rep	*
4DD/	4dd 4d/
4c 4A 4F#\	4cc#X 4en/
4D\	4ccn 4f#/
*Xrep	*
=9	=9
*^	*^
*	*	*	*2\right
4rF	2GG/	4.b/	2.g\
2B 2D\	.	.	.
.	.	8b/L	.
.	4GG/	8cc/	.
.	.	8b/J	.
*v	*v	*	*
=10	=10	=10
4DD/	4.a/	2.d\
4d 4A 4F#\	.	.
.	8a/L	.
4D\	8b/	.
.	8a/J	.
*	*v	*v
!!LO:LB:g=original
=11	=11
*^	*
4rF	2.GG/	4g/
4B 4D\	.	4gg: 4g:\
4B 4D\	.	4aa: 4a:\
=12	=12	=12
4rF	2.GG/	4.bb-X: 4.b-y:\
4G 4E 4C#X 4BB-X\	.	.
.	.	8gg\L
4G 4E 4C# 4BB-\	.	8ee\
.	.	8cc#X\J
*v	*v	*
=13	=13
4DD/	4dd\
.	16qqdd/
4B 4G\	4.gg\
4D\	.
.	8ff#\
=14	=14
*rep	*
4DD/	4ee\
4B 4G\	4dd\
4D\	4b\
*Xrep	*
=15	=15
4DD/	4a/
4c 4A 4F#\	4d/
4D\	8b/L
.	8a/J
=16	=16
4B 4G\	4g/
4r	4r
=!|:	=!|:
*>B	*>B
4r	8g/L
.	8a/J
=17	=17
*^	*^
2.E/	4EE/	2b/	2.g 2.e\
.	4EE/	.	.
.	4EE/	4b/	.
*	*	*v	*v
=18	=18	=18
*	*rep	*
2.d#X>/ 2.A/	4EE/	4.f#/
.	4EE/	.
.	.	8f#/L
.	4EE/	8g/
.	.	8f#/J
*	*Xrep	*
=19	=19	=19
*	*rep	*
!LO:N:n=1:vis=4.	!	!
2.e>/ 2.G/	4EE/	4.e/
.	4EE/	.
.	.	8B</L
.	4EE/	8A#X</
.	.	8B</J
*	*Xrep	*
=20	=20	=20
*	*rep	*
2.d#X>/ 2.An/	4EE/	4.f#/
.	4EE/	.
.	.	8f#/L
.	4EE/	8g/
.	.	8f#/J
*	*Xrep	*
!!LO:LB:g=original
=21	=21	=21
*rep	*rep	*
[2.A/	4EE/	4e 4B/
.	4EE/	8eL 8B/
.	.	8f# 8d#X/
.	4EE/	8g 8e/
.	.	8aJ 8f#/
*Xrep	*Xrep	*
=22	=22	=22
*rep	*rep	*
2.A/]	4EE/	4.b 4.g/
.	4EE/	.
.	.	8bL 8g/
.	4EE/	8a 8f#/
.	.	8gJ 8e/
*Xrep	*Xrep	*
=23	=23	=23
[2.BB/	4BBB/	4f# 4d#X/
.	4BBB/	8bL 8B/
.	.	8bJ 8B/
.	4BBB/	4b 4B/
=24	=24	=24
*rep	*rep	*
!	!	!LO:N:vis=2
2.BB/]	4BBB/	4b 4B/
.	4BBB/	4r
.	4BBB/	8gL 8e/
.	.	8aJ 8f#/
*Xrep	*Xrep	*
=25	=25	=25
*	*	*^
2.E/	4EE/	2b/	2g\ 2e\
.	4EE/	.	.
.	4EE/	4b 4e/	4ryy
*	*	*v	*v
=26	=26	=26
*	*rep	*
2.d#X>/ 2.A/	4EE/	4.f#/
.	4EE/	.
.	.	8f#/L
.	4EE/	8g/
.	.	8f#/J
*	*Xrep	*
=27	=27	=27
*	*rep	*
2.G/	4EE/	4.e/
.	4EE/	.
.	.	8B</L
.	4EE/	8A#X</
.	.	8B</J
*	*Xrep	*
=28	=28	=28
*	*rep	*
!LO:N:vis=2	!	!
2.d#X>/ 2.An/	4EE/	4.f#/
.	4EE/	.
.	.	8f#L/
.	4EE/	8g/
.	.	8f#/J
*	*Xrep	*
=29	=29	=29
!LO:TX:t=P:problem:skreślone nuty w takcie nr 29	!	!
4G 4C/	2.CC/	4e/
4C 4GG 4EE/	.	8eeL 8g 8e/
.	.	8eeJ 8g 8e/
4C 4GG 4EE/	.	4ee 4g 4e/
=30	=30	=30
!	!	!LO:N:n=2:vis=2
!LO:TX:t=P:problem:takt skreślony	!	!LO:N:n=3:vis=2
4r	2.D/	4.gg\ 4.cc\ 4.g\
4c 4A 4E\	.	.
.	.	8ee\L
4c 4CC 4AA 4EE\	.	8cc\
.	.	8a\J
*v	*v	*
!!LO:LB:g=original
=31	=31
4D 4BB 4GG 4DD/	4g/
4r	8ee\L
.	8dd\
4c 4A 4F# 4D\	8cc\
.	8a\J
=32	=32
4B 4G\	2g/
4GG/	.
4r	8g/L
.	8a/J
=33	=33
*^	*
4rF	2GG/	4b\
2B 2D\	.	4r
.	4GG/	4b\
*v	*v	*
=34	=34
4DD/	2a/
4c 4A 4F#\	.
4D\	4d/
=35	=35
*^	*
4rF	2.GG/	4.g/
4B 4D\	.	.
.	.	8a/L
4B 4D\	.	8b/
.	.	8cc/J
=36	=36	=36
*rep	*rep	*
4rF	2.GG/	4dd\
4B 4D\	.	4r
4B 4D\	.	[4gg [>4g\
*Xrep	*Xrep	*
=37	=37	=37
*rep	*rep	*
4rF	2.GG/	4gg] 4g\]
4B 4D\	.	4dd\
4B 4D\	.	4b\
*Xrep	*Xrep	*
=38	=38	=38
4rF	2GG/	4g/
.	.	16qqg/LL
.	.	16qqa/JJ
2B 2D\	.	4g/
.	4GG/	8f#/L
.	.	8g/J
*v	*v	*
=39	=39
4DD/	4a/
4c 4A 4F#\	4.ee 4.e/
4D\	.
.	8ee-X 8e-X/
=40	=40
*rep	*
4DD/	4dd 4d/
4c 4A 4F#\	4cc#X 4en/
4D\	4ccn 4f#/
*Xrep	*
!!LO:LB:g=original
=41	=41
*^	*^
4rF	2GG/	4.b/	2.g\
2B 2D\	.	.	.
.	.	8b/L	.
.	4GG/	8cc/	.
.	.	8b/J	.
*v	*v	*	*
=42	=42	=42
4DD/	4.a/	2.d\
4c 4A 4F#\	.	.
.	8a/L	.
4D\	8b/	.
.	8a/J	.
*	*v	*v
=43	=43
!LO:TX:t=1.	!
*>B1	*>B1
*^	*
4rF	2.GG/	4g/
4B 4D\	.	4gg: 4g:\
4B 4D\	.	4aa: 4a:\
=44	=44	=44
4rF	2.GG/	4.bb-X: 4.b-y:\
4G 4E 4C#X 4BB-X\	.	.
.	.	8gg\L
4G 4E 4C# 4BB-\	.	8ee\
.	.	8cc#X\J
*v	*v	*
=45	=45
4DD/	4dd\
.	16qqdd/
4B 4G\	4.gg\
4D\	.
.	8ff#\
=46	=46
*rep	*
4DD/	4ee\
4B 4G\	4dd\
4D\	4b\
*Xrep	*
=47	=47
4DD/	4a/
4c 4A 4F#\	4d/
4D\	8b/L
.	8a/J
=48	=48
4B 4G\	2g/
4GG/	.
=49:|!	=49:|!
!LO:TX:t=2.	!
*>B2	*>B2
*^	*
4rF	2.GG/	4g/
4B 4D\	.	4gg: 4g:\
4B 4D\	.	4aa: 4a:\
=50	=50	=50
4rF	2.GG/	4bb-X: 4b-y:\
4G 4E 4C#X 4BB-X\	.	8gg\L
.	.	8ff#\
4G 4E 4C# 4BB-\	.	8gg\
.	.	8aa\J
*v	*v	*
!!LO:LB:g=original
=51	=51
*>C	*>C
!	!LO:N:n=2:vis=2
!	!LO:N:n=3:vis=2
4DD/	4.bbn\ 4.dd\ 4.b\
4B 4G 4D\	.
.	8gg\L
4B 4G 4D\	8dd\
.	8b\J
=52	=52
4DD/	4.dd\
4c 4A 4F# 4D\	.
.	8cc\L
4c 4A 4F# 4D\	8a\
.	8b\J
=53	=53
4B 4G\	4g/
4r	8ggL 8b 8g\
.	8ggJ 8b 8g\
4G 4GG/	4gg 4b 4g\
=54	=54
!	!LO:TX:b:t=Fine
2.GG 2.GGG/	2.gg 2.b 2.g\
==	==
*-	*-
!!!system-decoration: {(s1,s2)}
!!!RDF**kern: > = above
!!!RDF**kern: < = below
!!!AIN: 1 empty
!!!ENC: Andrzej Kubiczek
!!!END: 2021-05-30
!!!ENC: Krzysztof Stępień
!!!END: 2021-05-10
